icons-mns/wifi-hotspot.svg

<svg height="1em" width="auto" viewBox="0 0 105 105" fill="currentColor" xmlns="http://www.w3.org/2000/svg">
<path d="M36.75 29.0146C37.9164 26.3236 38.5185 23.418 38.5185 20.4807C38.5185 17.5433 37.9164 14.6377 36.75 11.9468C36.5378 11.448 36.487 10.8943 36.6047 10.3646C36.7225 9.83494 37.0029 9.35633 37.406 8.99702C37.809 8.63771 38.3141 8.41604 38.8493 8.36361C39.3844 8.31119 39.9223 8.43069 40.3862 8.70507C42.1673 10.0835 43.6102 11.8573 44.6032 13.8892C45.5962 15.921 46.1127 18.1563 46.1127 20.4221C46.1127 22.6878 45.5962 24.9232 44.6032 26.955C43.6102 28.9869 42.1673 30.7607 40.3862 32.1391C39.9223 32.4135 39.3844 32.533 38.8493 32.4806C38.3141 32.4281 37.809 32.2065 37.406 31.8472C37.0029 31.4879 36.7225 31.0092 36.6047 30.4796C36.487 29.9499 36.5378 29.3962 36.75 28.8974V29.0146Z"/>
<path d="M44.8349 37.0598C48.0879 32.1543 49.8246 26.3838 49.8246 20.4802C49.8246 14.5767 48.0879 8.80618 44.8349 3.90066C44.5073 3.41515 44.3625 2.8273 44.4268 2.24341C44.4911 1.65952 44.7602 1.11813 45.1854 0.717105C45.6106 0.316084 46.1639 0.081908 46.7452 0.0569164C47.3266 0.0319247 47.8976 0.217767 48.355 0.580842C51.2159 3.03004 53.5144 6.07872 55.0908 9.51509C56.6673 12.9515 57.4838 16.6932 57.4838 20.4802C57.4838 24.2673 56.6673 28.009 55.0908 31.4454C53.5144 34.8818 51.2159 37.9305 48.355 40.3797C47.8976 40.7427 47.3266 40.9286 46.7452 40.9036C46.1639 40.8786 45.6106 40.6444 45.1854 40.2434C44.7602 39.8424 44.4911 39.301 44.4268 38.7171C44.3625 38.1332 44.5073 37.5453 44.8349 37.0598Z"/>
<path d="M21.0444 11.9471C19.896 14.6428 19.3037 17.5465 19.3037 20.481C19.3037 23.4154 19.896 26.3191 21.0444 29.0149C21.2757 29.5101 21.3423 30.0675 21.2342 30.6041C21.1261 31.1406 20.8491 31.6275 20.4445 31.9921C20.0399 32.3567 19.5294 32.5794 18.9892 32.6271C18.4489 32.6747 17.9079 32.5448 17.4468 32.2566C15.659 30.8828 14.2097 29.1105 13.2121 27.0781C12.2144 25.0456 11.6953 22.8079 11.6953 20.5395C11.6953 18.2712 12.2144 16.0335 13.2121 14.001C14.2097 11.9685 15.659 10.1963 17.4468 8.82252C17.9079 8.53432 18.4489 8.40436 18.9892 8.45202C19.5294 8.49969 20.0399 8.72243 20.4445 9.08701C20.8491 9.45159 21.1261 9.93847 21.2342 10.475C21.3423 11.0116 21.2757 11.569 21.0444 12.0642V11.9471Z"/>
<path d="M12.9983 3.9398C9.72551 8.8376 7.97689 14.6111 7.97689 20.5194C7.97689 26.4277 9.72551 32.2012 12.9983 37.099C13.2896 37.5914 13.4044 38.1699 13.3233 38.7376C13.2422 39.3053 12.9702 39.8275 12.5529 40.2167C12.1357 40.6059 11.5986 40.8384 11.0317 40.8752C10.4648 40.912 9.90264 40.7509 9.43948 40.4188C6.56841 37.9706 4.26168 34.9187 2.68059 31.4765C1.0995 28.0344 0.282217 24.2851 0.285901 20.4908C0.289585 16.6965 1.11414 12.9488 2.70192 9.50977C4.28969 6.07075 6.60234 3.02344 9.47817 0.580918C9.93582 0.190572 10.5199 -0.0158919 11.1187 0.000955382C11.7176 0.0178026 12.2893 0.256781 12.7247 0.67225C13.1602 1.08772 13.4288 1.65057 13.4792 2.2533C13.5297 2.85604 13.3585 3.45642 12.9983 3.9398Z"/>
<path d="M24.6807 20.4605C24.6921 19.6234 24.9478 18.8083 25.4156 18.1171C25.8975 17.4029 26.5867 16.8571 27.3885 16.5548C28.1483 16.2428 28.9818 16.1614 29.7868 16.3205C30.6159 16.4629 31.3764 16.8743 31.9531 17.4922C32.5435 18.0753 32.9477 18.8234 33.1136 19.6403C33.2708 20.4732 33.178 21.3346 32.8472 22.1139C32.5163 22.8933 31.9626 23.5551 31.2568 24.0147C30.557 24.4806 29.7354 24.7254 28.8971 24.7177C28.3431 24.7213 27.7939 24.6125 27.2823 24.3978C26.7706 24.1831 26.3069 23.8669 25.9185 23.4679C25.131 22.6683 24.6864 21.5881 24.6807 20.4605Z" />
<path d="M32.3014 35.9269C32.6882 42.2541 32.7269 48.5813 32.7656 54.9085C32.8043 61.2357 32.7656 67.6019 32.3014 73.9291C32.212 74.7725 31.8168 75.5527 31.192 76.1197C30.5671 76.6866 29.7567 77.0003 28.9166 77.0003C28.0765 77.0003 27.2661 76.6866 26.6412 76.1197C26.0164 75.5527 25.6212 74.7725 25.5318 73.9291C25.1063 67.6019 25.1063 61.2747 25.0289 54.9085C24.9516 48.5422 25.0289 42.2541 25.5318 35.9269C25.5564 35.4769 25.6693 35.0364 25.8641 34.6309C26.0589 34.2254 26.3316 33.8631 26.6664 33.5651C27.0012 33.267 27.3914 33.0392 27.8142 32.8948C28.2371 32.7505 28.6841 32.6925 29.1294 32.7243C29.9499 32.7872 30.721 33.1449 31.3029 33.7324C31.8848 34.3199 32.239 35.0984 32.3014 35.9269Z"/>
</svg>

<svg xmlns="http://www.w3.org/2000/svg" width="auto" height="1em" fill="currentColor" viewBox="0 0 105 105">
    <path d="M36.75 29.015a21.46 21.46 0 0 0 0-17.068 2.6 2.6 0 0 1-.145-1.582c.117-.53.398-1.009.801-1.368s.908-.581 1.443-.633a2.53 2.53 0 0 1 1.537.341 14.7 14.7 0 0 1 4.217 5.184 14.88 14.88 0 0 1 0 13.066 14.7 14.7 0 0 1-4.217 5.184 2.53 2.53 0 0 1-2.98-.292 2.6 2.6 0 0 1-.801-1.367 2.6 2.6 0 0 1 .145-1.583z"/>
    <path d="M44.835 37.06a30 30 0 0 0 4.99-16.58 30 30 0 0 0-4.99-16.58 2.48 2.48 0 0 1 .35-3.183 2.42 2.42 0 0 1 3.17-.136 26.1 26.1 0 0 1 6.736 8.934 26.3 26.3 0 0 1 2.393 10.965 26.3 26.3 0 0 1-2.393 10.965 26.1 26.1 0 0 1-6.736 8.935 2.42 2.42 0 0 1-3.17-.137 2.48 2.48 0 0 1-.35-3.184M21.044 11.947a21.78 21.78 0 0 0 0 17.068 2.56 2.56 0 0 1-.6 2.977 2.496 2.496 0 0 1-2.998.264 14.7 14.7 0 0 1-4.234-5.178 14.84 14.84 0 0 1 0-13.077 14.7 14.7 0 0 1 4.235-5.178 2.495 2.495 0 0 1 2.998.264 2.56 2.56 0 0 1 .6 2.977z"/>
    <path d="M12.998 3.94a29.85 29.85 0 0 0-5.021 16.58 29.85 29.85 0 0 0 5.021 16.579 2.52 2.52 0 0 1-.445 3.118 2.46 2.46 0 0 1-3.113.202 26 26 0 0 1-6.76-8.942A26.3 26.3 0 0 1 .287 20.49 26.3 26.3 0 0 1 2.702 9.51 26 26 0 0 1 9.478.58a2.423 2.423 0 0 1 3.247.092 2.477 2.477 0 0 1 .274 3.268M24.68 20.46a4.3 4.3 0 0 1 .736-2.343 4.15 4.15 0 0 1 1.973-1.562 4.2 4.2 0 0 1 2.398-.235c.829.143 1.59.554 2.166 1.172.59.583.995 1.331 1.16 2.148a4.3 4.3 0 0 1-.266 2.474 4.25 4.25 0 0 1-1.59 1.9c-.7.467-1.522.711-2.36.704a4.1 4.1 0 0 1-1.615-.32 4.1 4.1 0 0 1-1.363-.93 4.32 4.32 0 0 1-1.238-3.008m7.62 15.467c.387 6.327.426 12.654.465 18.981.038 6.328 0 12.694-.465 19.021a3.45 3.45 0 0 1-1.109 2.19 3.4 3.4 0 0 1-2.275.881c-.84 0-1.65-.313-2.276-.88a3.45 3.45 0 0 1-1.11-2.19c-.425-6.328-.425-12.655-.502-19.022s0-12.654.503-18.981a3.43 3.43 0 0 1 1.134-2.362 3.36 3.36 0 0 1 2.463-.84c.82.062 1.592.42 2.174 1.007a3.5 3.5 0 0 1 .998 2.195"/>
</svg>
